Newaita-dark/apps/48/gnome-robots.svg

<svg height="48pt" viewBox="0 0 48 48" width="48pt" xmlns="http://www.w3.org/2000/svg" xmlns:xlink="http://www.w3.org/1999/xlink"><linearGradient id="a"><stop offset="0" stop-opacity=".313725"/><stop offset=".222222" stop-opacity=".27451"/><stop offset="1" stop-opacity="0"/></linearGradient><radialGradient id="b" cx="450.908936" cy="189.579361" gradientTransform="matrix(.00000026 -.117199 -.210958 -.00000015 66.784728 95.392994)" gradientUnits="userSpaceOnUse" r="21.166656" xlink:href="#a"/><radialGradient id="c" cx="450.908936" cy="189.579361" gradientTransform="matrix(-.00000026 .117199 .210958 .00000015 -19.155178 -11.291223)" gradientUnits="userSpaceOnUse" r="21.166656" xlink:href="#a"/><radialGradient id="d" cx="450.908936" cy="189.579361" gradientTransform="matrix(-.00000026 -.117199 .210958 -.00000015 -19.155178 95.392994)" gradientUnits="userSpaceOnUse" r="21.166656" xlink:href="#a"/><radialGradient id="e" cx="450.908936" cy="189.579361" gradientTransform="matrix(.00000026 .117199 -.210958 .00000015 66.784725 -11.291224)" gradientUnits="userSpaceOnUse" r="21.166656" xlink:href="#a"/><linearGradient id="f" gradientTransform="matrix(.0200401 0 0 .093759 18.698079 20.158175)" gradientUnits="userSpaceOnUse" x1="255.323059" x2="255.323044" y1="233.5" y2="254.666656"><stop offset="0" stop-opacity=".27451"/><stop offset="1" stop-opacity="0"/></linearGradient><linearGradient id="g" gradientUnits="userSpaceOnUse" x1="254" x2="254" y1="-31.083334" y2="95.916664"><stop offset="0" stop-color="#424242"/><stop offset="1" stop-color="#616161"/></linearGradient><linearGradient id="h" gradientUnits="userSpaceOnUse" x1="960.000112" x2="960.000112" y1="175.11804050918" y2="1695.118238"><stop offset="0" stop-color="#e0e0e0"/><stop offset="1" stop-color="#9e9e9e"/></linearGradient><linearGradient id="i"><stop offset="0" stop-color="#ef5350"/><stop offset="1" stop-color="#e57373"/></linearGradient><linearGradient id="j" gradientUnits="userSpaceOnUse" x1="23.814786" x2="23.814786" xlink:href="#i" y1="26.17437724998" y2="20.22068103125"/><linearGradient id="k" gradientUnits="userSpaceOnUse" x1="33.747881" x2="33.747881" xlink:href="#i" y1="26.17437724998" y2="20.22068103125"/><linearGradient id="l" gradientUnits="userSpaceOnUse" x1="13.891964" x2="13.891964" xlink:href="#i" y1="26.17437724998" y2="20.22068103125"/><path d="m27.289062 42.050781h3.96875v-1.984375h-3.96875zm0 0" fill="url(#b)"/><path d="m20.339844 42.050781h-3.96875v1.984375h3.96875zm0 0" fill="url(#c)"/><path d="m20.339844 42.050781h-3.96875v-1.984375h3.96875zm0 0" fill="url(#d)"/><path d="m27.289062 42.050781h3.96875v1.984375h-3.96875zm0 0" fill="url(#e)"/><path d="m20.339844 41.554688h6.949218v2.480468h-6.949218zm0 0" fill="url(#f)"/><path d="m74.076259-31.100895h359.840637v127.029536h-359.840637zm0 0" fill="url(#g)" stroke="#212121" stroke-linecap="round" stroke-width="3" transform="matrix(.093759 0 0 .093759 0 20.158175)"/><path d="m960.065849 175.101398c-351.777449 0-646.237534 236.670325-733.630768 559.946557h1467.104071c-87.235769-323.276232-381.695854-559.946557-733.473303-559.946557zm-733.630768 960.065849c87.393234 323.276232 381.853319 559.946557 733.630768 559.946557s646.237534-236.670325 733.473303-559.946557zm0 0" fill="url(#h)" stroke="#333" stroke-linecap="round" stroke-width="11.338583" transform="scale(.0248071)"/><path d="m23.816406 42.050781c-10.445312 0-18.855468-8.410156-18.855468-18.851562 0-.0625 0-.125 0-.1875.101562 10.359375 8.472656 18.667969 18.855468 18.667969 10.382813 0 18.753906-8.308594 18.851563-18.667969v.1875c0 10.441406-8.410157 18.851562-18.851563 18.851562zm0 0" fill-opacity=".196078"/><path d="m23.816406 4.34375c-10.445312 0-18.855468 8.410156-18.855468 18.855469v.183593c.101562-10.359374 8.472656-18.667968 18.855468-18.667968 10.382813 0 18.753906 8.308594 18.851563 18.667968 0-.0625 0-.125 0-.183593 0-10.445313-8.410157-18.855469-18.851563-18.855469zm0 0" fill="#fff" fill-opacity=".392157"/><path d="m23.816406 4.203125c-8.804687 0-16.175781 5.933594-18.347656 14.03125h.292969c2.164062-7.941406 9.402343-13.75 18.054687-13.75 8.648438 0 15.890625 5.808594 18.050782 13.75h.292968c-2.171875-8.097656-9.542968-14.03125-18.34375-14.03125zm-18.347656 23.957031c2.171875 8.097656 9.542969 14.03125 18.347656 14.03125 8.800782 0 16.171875-5.933594 18.34375-14.03125h-.292968c-2.160157 7.945313-9.402344 13.75-18.050782 13.75-8.652344 0-15.890625-5.804687-18.054687-13.75zm0 0" fill="#212121"/><path d="m23.816406 20.21875c1.640625 0 2.976563 1.335938 2.976563 2.980469 0 1.640625-1.335938 2.976562-2.976563 2.976562-1.644531 0-2.976562-1.335937-2.976562-2.976562 0-1.644531 1.332031-2.980469 2.976562-2.980469zm0 0" fill="url(#j)"/><path d="m23.816406 20.21875c-1.652344 0-2.976562 1.328125-2.976562 2.980469 0 .082031 0 .164062.007812.246093.125-1.53125 1.402344-2.726562 2.96875-2.726562 1.5625 0 2.839844 1.195312 2.964844 2.726562.007812-.082031.011719-.164062.011719-.246093 0-1.652344-1.328125-2.980469-2.976563-2.980469zm0 0" fill="#fff" fill-opacity=".392157"/><path d="m23.816406 26.175781c-1.652344 0-2.976562-1.328125-2.976562-2.976562 0-.085938 0-.167969.007812-.25.125 1.53125 1.402344 2.730469 2.96875 2.730469 1.5625 0 2.839844-1.199219 2.964844-2.730469.007812.082031.011719.164062.011719.25 0 1.648437-1.328125 2.976562-2.976563 2.976562zm0 0" fill-opacity=".235294"/><path d="m254.017409.646073c17.498329 0 31.746969 14.24864 31.746969 31.788631 0 17.498329-14.24864 31.746969-31.746969 31.746969-17.539991 0-31.746968-14.24864-31.746968-31.746969 0-17.539991 14.206977-31.788631 31.746968-31.788631zm0 0" fill="none" stroke="#212121" stroke-linecap="round" stroke-width="3" transform="matrix(.093759 0 0 .093759 0 20.158175)"/><path d="m33.746094 20.21875c1.644531 0 2.980468 1.335938 2.980468 2.980469 0 1.640625-1.335937 2.976562-2.980468 2.976562-1.640625 0-2.976563-1.335937-2.976563-2.976562 0-1.644531 1.335938-2.980469 2.976563-2.980469zm0 0" fill="url(#k)"/><path d="m33.746094 20.21875c-1.648438 0-2.976563 1.328125-2.976563 2.980469 0 .082031.003907.164062.011719.246093.125-1.53125 1.402344-2.726562 2.964844-2.726562 1.566406 0 2.84375 1.195312 2.96875 2.726562.007812-.082031.011718-.164062.011718-.246093 0-1.652344-1.328124-2.980469-2.980468-2.980469zm0 0" fill="#fff" fill-opacity=".392157"/><path d="m33.746094 26.175781c-1.648438 0-2.976563-1.328125-2.976563-2.976562 0-.085938.003907-.167969.011719-.25.125 1.53125 1.402344 2.730469 2.964844 2.730469 1.566406 0 2.84375-1.199219 2.96875-2.730469.007812.082031.011718.164062.011718.25 0 1.648437-1.328124 2.976562-2.980468 2.976562zm0 0" fill-opacity=".235294"/><path d="m253.981061.646073c17.539991 0 31.788631 14.24864 31.788631 31.788631 0 17.498329-14.24864 31.746969-31.788631 31.746969-17.498329 0-31.746969-14.24864-31.746969-31.746969 0-17.539991 14.24864-31.788631 31.746969-31.788631zm0 0" fill="none" stroke="#212121" stroke-linecap="round" stroke-width="3" transform="matrix(.093759 0 0 .093759 9.933095 20.158175)"/><path d="m13.890625 20.21875c1.644531 0 2.976563 1.335938 2.976563 2.980469 0 1.640625-1.332032 2.976562-2.976563 2.976562s-2.976563-1.335937-2.976563-2.976562c0-1.644531 1.332032-2.980469 2.976563-2.980469zm0 0" fill="url(#l)"/><path d="m13.890625 20.21875c-1.648437 0-2.976563 1.328125-2.976563 2.980469 0 .082031.003907.164062.011719.246093.125-1.53125 1.402344-2.726562 2.964844-2.726562 1.566406 0 2.84375 1.195312 2.96875 2.726562.003906-.082031.007813-.164062.007813-.246093 0-1.652344-1.324219-2.980469-2.976563-2.980469zm0 0" fill="#fff" fill-opacity=".392157"/><path d="m13.890625 26.175781c-1.648437 0-2.976563-1.328125-2.976563-2.976562 0-.085938.003907-.167969.011719-.25.125 1.53125 1.402344 2.730469 2.964844 2.730469 1.566406 0 2.84375-1.199219 2.96875-2.730469.003906.082031.007813.164062.007813.25 0 1.648437-1.324219 2.976562-2.976563 2.976562zm0 0" fill-opacity=".235294"/><path d="m253.985847.646073c17.539992 0 31.746968 14.24864 31.746968 31.788631 0 17.498329-14.206976 31.746969-31.746968 31.746969s-31.746968-14.24864-31.746968-31.746969c0-17.539991 14.206976-31.788631 31.746968-31.788631zm0 0" fill="none" stroke="#212121" stroke-linecap="round" stroke-width="3" transform="matrix(.093759 0 0 .093759 -9.922822 20.158175)"/></svg>

<?xml version="1.0" encoding="UTF-8"?>
<svg xmlns="http://www.w3.org/2000/svg" xmlns:xlink="http://www.w3.org/1999/xlink" width="48pt" height="48pt" viewBox="0 0 48 48" version="1.1">
<defs>
<radialGradient id="radial0" gradientUnits="userSpaceOnUse" cx="450.908936" cy="189.579361" fx="450.908936" fy="189.579361" r="21.166656" gradientTransform="matrix(0.000000261256,-0.117199,-0.210958,-0.000000152308,66.784728,95.392994)">
<stop offset="0" style="stop-color:rgb(0%,0%,0%);stop-opacity:0.313725;"/>
<stop offset="0.222222" style="stop-color:rgb(0%,0%,0%);stop-opacity:0.27451;"/>
<stop offset="1" style="stop-color:rgb(0%,0%,0%);stop-opacity:0;"/>
</radialGradient>
<radialGradient id="radial1" gradientUnits="userSpaceOnUse" cx="450.908936" cy="189.579361" fx="450.908936" fy="189.579361" r="21.166656" gradientTransform="matrix(-0.000000261256,0.117199,0.210958,0.000000152308,-19.155178,-11.291223)">
<stop offset="0" style="stop-color:rgb(0%,0%,0%);stop-opacity:0.313725;"/>
<stop offset="0.222222" style="stop-color:rgb(0%,0%,0%);stop-opacity:0.27451;"/>
<stop offset="1" style="stop-color:rgb(0%,0%,0%);stop-opacity:0;"/>
</radialGradient>
<radialGradient id="radial2" gradientUnits="userSpaceOnUse" cx="450.908936" cy="189.579361" fx="450.908936" fy="189.579361" r="21.166656" gradientTransform="matrix(-0.000000261256,-0.117199,0.210958,-0.000000152308,-19.155178,95.392994)">
<stop offset="0" style="stop-color:rgb(0%,0%,0%);stop-opacity:0.313725;"/>
<stop offset="0.222222" style="stop-color:rgb(0%,0%,0%);stop-opacity:0.27451;"/>
<stop offset="1" style="stop-color:rgb(0%,0%,0%);stop-opacity:0;"/>
</radialGradient>
<radialGradient id="radial3" gradientUnits="userSpaceOnUse" cx="450.908936" cy="189.579361" fx="450.908936" fy="189.579361" r="21.166656" gradientTransform="matrix(0.000000261256,0.117199,-0.210958,0.000000152308,66.784725,-11.291224)">
<stop offset="0" style="stop-color:rgb(0%,0%,0%);stop-opacity:0.313725;"/>
<stop offset="0.222222" style="stop-color:rgb(0%,0%,0%);stop-opacity:0.27451;"/>
<stop offset="1" style="stop-color:rgb(0%,0%,0%);stop-opacity:0;"/>
</radialGradient>
<linearGradient id="linear0" gradientUnits="userSpaceOnUse" x1="255.323059" y1="233.5" x2="255.323044" y2="254.666656" gradientTransform="matrix(0.0200401,0,0,0.093759,18.698079,20.158175)">
<stop offset="0" style="stop-color:rgb(0%,0%,0%);stop-opacity:0.27451;"/>
<stop offset="1" style="stop-color:rgb(0%,0%,0%);stop-opacity:0;"/>
</linearGradient>
<linearGradient id="linear1" gradientUnits="userSpaceOnUse" x1="254" y1="-31.083334" x2="254" y2="95.916664" gradientTransform="matrix(1,0,0,1,0,0)">
<stop offset="0" style="stop-color:rgb(25.882353%,25.882353%,25.882353%);stop-opacity:1;"/>
<stop offset="1" style="stop-color:rgb(38.039216%,38.039216%,38.039216%);stop-opacity:1;"/>
</linearGradient>
<linearGradient id="linear2" gradientUnits="userSpaceOnUse" x1="254" y1="-168.666672" x2="254" y2="233.5" gradientTransform="matrix(3.779528,0,0,3.779528,0,812.59845)">
<stop offset="0" style="stop-color:rgb(87.843137%,87.843137%,87.843137%);stop-opacity:1;"/>
<stop offset="1" style="stop-color:rgb(61.960784%,61.960784%,61.960784%);stop-opacity:1;"/>
</linearGradient>
<linearGradient id="linear3" gradientUnits="userSpaceOnUse" x1="254" y1="64.166664" x2="254" y2="0.666667" gradientTransform="matrix(0.093759,0,0,0.093759,0,20.158175)">
<stop offset="0" style="stop-color:rgb(93.72549%,32.54902%,31.372549%);stop-opacity:1;"/>
<stop offset="1" style="stop-color:rgb(89.803922%,45.098039%,45.098039%);stop-opacity:1;"/>
</linearGradient>
<linearGradient id="linear4" gradientUnits="userSpaceOnUse" x1="254" y1="64.166664" x2="254" y2="0.666667" gradientTransform="matrix(0.093759,0,0,0.093759,9.933095,20.158175)">
<stop offset="0" style="stop-color:rgb(93.72549%,32.54902%,31.372549%);stop-opacity:1;"/>
<stop offset="1" style="stop-color:rgb(89.803922%,45.098039%,45.098039%);stop-opacity:1;"/>
</linearGradient>
<linearGradient id="linear5" gradientUnits="userSpaceOnUse" x1="254" y1="64.166664" x2="254" y2="0.666667" gradientTransform="matrix(0.093759,0,0,0.093759,-9.922822,20.158175)">
<stop offset="0" style="stop-color:rgb(93.72549%,32.54902%,31.372549%);stop-opacity:1;"/>
<stop offset="1" style="stop-color:rgb(89.803922%,45.098039%,45.098039%);stop-opacity:1;"/>
</linearGradient>
</defs>
<g id="surface1">
<path style=" stroke:none;fill-rule:nonzero;fill:url(#radial0);" d="M 27.289062 42.050781 L 31.257812 42.050781 L 31.257812 40.066406 L 27.289062 40.066406 Z M 27.289062 42.050781 "/>
<path style=" stroke:none;fill-rule:nonzero;fill:url(#radial1);" d="M 20.339844 42.050781 L 16.371094 42.050781 L 16.371094 44.035156 L 20.339844 44.035156 Z M 20.339844 42.050781 "/>
<path style=" stroke:none;fill-rule:nonzero;fill:url(#radial2);" d="M 20.339844 42.050781 L 16.371094 42.050781 L 16.371094 40.066406 L 20.339844 40.066406 Z M 20.339844 42.050781 "/>
<path style=" stroke:none;fill-rule:nonzero;fill:url(#radial3);" d="M 27.289062 42.050781 L 31.257812 42.050781 L 31.257812 44.035156 L 27.289062 44.035156 Z M 27.289062 42.050781 "/>
<path style=" stroke:none;fill-rule:nonzero;fill:url(#linear0);" d="M 20.339844 41.554688 L 27.289062 41.554688 L 27.289062 44.035156 L 20.339844 44.035156 Z M 20.339844 41.554688 "/>
<path style="fill-rule:nonzero;fill:url(#linear1);stroke-width:3;stroke-linecap:round;stroke-linejoin:miter;stroke:rgb(12.941177%,12.941177%,12.941177%);stroke-opacity:1;stroke-miterlimit:4;" d="M 74.076259 -31.100895 L 433.916896 -31.100895 L 433.916896 95.928641 L 74.076259 95.928641 Z M 74.076259 -31.100895 " transform="matrix(0.093759,0,0,0.093759,0,20.158175)"/>
<path style="fill-rule:nonzero;fill:url(#linear2);stroke-width:11.338583;stroke-linecap:round;stroke-linejoin:miter;stroke:rgb(20%,20%,20%);stroke-opacity:1;stroke-miterlimit:4;" d="M 960.065849 175.101398 C 608.2884 175.101398 313.828315 411.771723 226.435081 735.047955 L 1693.539152 735.047955 C 1606.303383 411.771723 1311.843298 175.101398 960.065849 175.101398 Z M 226.435081 1135.167247 C 313.828315 1458.443479 608.2884 1695.113804 960.065849 1695.113804 C 1311.843298 1695.113804 1606.303383 1458.443479 1693.539152 1135.167247 Z M 226.435081 1135.167247 " transform="matrix(0.0248071,0,0,0.0248071,0,0)"/>
<path style=" stroke:none;fill-rule:nonzero;fill:rgb(0%,0%,0%);fill-opacity:0.196078;" d="M 23.816406 42.050781 C 13.371094 42.050781 4.960938 33.640625 4.960938 23.199219 C 4.960938 23.136719 4.960938 23.074219 4.960938 23.011719 C 5.0625 33.371094 13.433594 41.679688 23.816406 41.679688 C 34.199219 41.679688 42.570312 33.371094 42.667969 23.011719 C 42.667969 23.074219 42.667969 23.136719 42.667969 23.199219 C 42.667969 33.640625 34.257812 42.050781 23.816406 42.050781 Z M 23.816406 42.050781 "/>
<path style=" stroke:none;fill-rule:nonzero;fill:rgb(100%,100%,100%);fill-opacity:0.392157;" d="M 23.816406 4.34375 C 13.371094 4.34375 4.960938 12.753906 4.960938 23.199219 C 4.960938 23.257812 4.960938 23.320312 4.960938 23.382812 C 5.0625 13.023438 13.433594 4.714844 23.816406 4.714844 C 34.199219 4.714844 42.570312 13.023438 42.667969 23.382812 C 42.667969 23.320312 42.667969 23.257812 42.667969 23.199219 C 42.667969 12.753906 34.257812 4.34375 23.816406 4.34375 Z M 23.816406 4.34375 "/>
<path style=" stroke:none;fill-rule:nonzero;fill:rgb(12.941177%,12.941177%,12.941177%);fill-opacity:1;" d="M 23.816406 4.203125 C 15.011719 4.203125 7.640625 10.136719 5.46875 18.234375 L 5.761719 18.234375 C 7.925781 10.292969 15.164062 4.484375 23.816406 4.484375 C 32.464844 4.484375 39.707031 10.292969 41.867188 18.234375 L 42.160156 18.234375 C 39.988281 10.136719 32.617188 4.203125 23.816406 4.203125 Z M 5.46875 28.160156 C 7.640625 36.257812 15.011719 42.191406 23.816406 42.191406 C 32.617188 42.191406 39.988281 36.257812 42.160156 28.160156 L 41.867188 28.160156 C 39.707031 36.105469 32.464844 41.910156 23.816406 41.910156 C 15.164062 41.910156 7.925781 36.105469 5.761719 28.160156 Z M 5.46875 28.160156 "/>
<path style=" stroke:none;fill-rule:nonzero;fill:url(#linear3);" d="M 23.816406 20.21875 C 25.457031 20.21875 26.792969 21.554688 26.792969 23.199219 C 26.792969 24.839844 25.457031 26.175781 23.816406 26.175781 C 22.171875 26.175781 20.839844 24.839844 20.839844 23.199219 C 20.839844 21.554688 22.171875 20.21875 23.816406 20.21875 Z M 23.816406 20.21875 "/>
<path style=" stroke:none;fill-rule:nonzero;fill:rgb(100%,100%,100%);fill-opacity:0.392157;" d="M 23.816406 20.21875 C 22.164062 20.21875 20.839844 21.546875 20.839844 23.199219 C 20.839844 23.28125 20.839844 23.363281 20.847656 23.445312 C 20.972656 21.914062 22.25 20.71875 23.816406 20.71875 C 25.378906 20.71875 26.65625 21.914062 26.78125 23.445312 C 26.789062 23.363281 26.792969 23.28125 26.792969 23.199219 C 26.792969 21.546875 25.464844 20.21875 23.816406 20.21875 Z M 23.816406 20.21875 "/>
<path style=" stroke:none;fill-rule:nonzero;fill:rgb(0%,0%,0%);fill-opacity:0.235294;" d="M 23.816406 26.175781 C 22.164062 26.175781 20.839844 24.847656 20.839844 23.199219 C 20.839844 23.113281 20.839844 23.03125 20.847656 22.949219 C 20.972656 24.480469 22.25 25.679688 23.816406 25.679688 C 25.378906 25.679688 26.65625 24.480469 26.78125 22.949219 C 26.789062 23.03125 26.792969 23.113281 26.792969 23.199219 C 26.792969 24.847656 25.464844 26.175781 23.816406 26.175781 Z M 23.816406 26.175781 "/>
<path style="fill:none;stroke-width:3;stroke-linecap:round;stroke-linejoin:miter;stroke:rgb(12.941177%,12.941177%,12.941177%);stroke-opacity:1;stroke-miterlimit:4;" d="M 254.017409 0.646073 C 271.515738 0.646073 285.764378 14.894713 285.764378 32.434704 C 285.764378 49.933033 271.515738 64.181673 254.017409 64.181673 C 236.477418 64.181673 222.270441 49.933033 222.270441 32.434704 C 222.270441 14.894713 236.477418 0.646073 254.017409 0.646073 Z M 254.017409 0.646073 " transform="matrix(0.093759,0,0,0.093759,0,20.158175)"/>
<path style=" stroke:none;fill-rule:nonzero;fill:url(#linear4);" d="M 33.746094 20.21875 C 35.390625 20.21875 36.726562 21.554688 36.726562 23.199219 C 36.726562 24.839844 35.390625 26.175781 33.746094 26.175781 C 32.105469 26.175781 30.769531 24.839844 30.769531 23.199219 C 30.769531 21.554688 32.105469 20.21875 33.746094 20.21875 Z M 33.746094 20.21875 "/>
<path style=" stroke:none;fill-rule:nonzero;fill:rgb(100%,100%,100%);fill-opacity:0.392157;" d="M 33.746094 20.21875 C 32.097656 20.21875 30.769531 21.546875 30.769531 23.199219 C 30.769531 23.28125 30.773438 23.363281 30.78125 23.445312 C 30.90625 21.914062 32.183594 20.71875 33.746094 20.71875 C 35.3125 20.71875 36.589844 21.914062 36.714844 23.445312 C 36.722656 23.363281 36.726562 23.28125 36.726562 23.199219 C 36.726562 21.546875 35.398438 20.21875 33.746094 20.21875 Z M 33.746094 20.21875 "/>
<path style=" stroke:none;fill-rule:nonzero;fill:rgb(0%,0%,0%);fill-opacity:0.235294;" d="M 33.746094 26.175781 C 32.097656 26.175781 30.769531 24.847656 30.769531 23.199219 C 30.769531 23.113281 30.773438 23.03125 30.78125 22.949219 C 30.90625 24.480469 32.183594 25.679688 33.746094 25.679688 C 35.3125 25.679688 36.589844 24.480469 36.714844 22.949219 C 36.722656 23.03125 36.726562 23.113281 36.726562 23.199219 C 36.726562 24.847656 35.398438 26.175781 33.746094 26.175781 Z M 33.746094 26.175781 "/>
<path style="fill:none;stroke-width:3;stroke-linecap:round;stroke-linejoin:miter;stroke:rgb(12.941177%,12.941177%,12.941177%);stroke-opacity:1;stroke-miterlimit:4;" d="M 253.981061 0.646073 C 271.521052 0.646073 285.769692 14.894713 285.769692 32.434704 C 285.769692 49.933033 271.521052 64.181673 253.981061 64.181673 C 236.482732 64.181673 222.234092 49.933033 222.234092 32.434704 C 222.234092 14.894713 236.482732 0.646073 253.981061 0.646073 Z M 253.981061 0.646073 " transform="matrix(0.093759,0,0,0.093759,9.933095,20.158175)"/>
<path style=" stroke:none;fill-rule:nonzero;fill:url(#linear5);" d="M 13.890625 20.21875 C 15.535156 20.21875 16.867188 21.554688 16.867188 23.199219 C 16.867188 24.839844 15.535156 26.175781 13.890625 26.175781 C 12.246094 26.175781 10.914062 24.839844 10.914062 23.199219 C 10.914062 21.554688 12.246094 20.21875 13.890625 20.21875 Z M 13.890625 20.21875 "/>
<path style=" stroke:none;fill-rule:nonzero;fill:rgb(100%,100%,100%);fill-opacity:0.392157;" d="M 13.890625 20.21875 C 12.242188 20.21875 10.914062 21.546875 10.914062 23.199219 C 10.914062 23.28125 10.917969 23.363281 10.925781 23.445312 C 11.050781 21.914062 12.328125 20.71875 13.890625 20.71875 C 15.457031 20.71875 16.734375 21.914062 16.859375 23.445312 C 16.863281 23.363281 16.867188 23.28125 16.867188 23.199219 C 16.867188 21.546875 15.542969 20.21875 13.890625 20.21875 Z M 13.890625 20.21875 "/>
<path style=" stroke:none;fill-rule:nonzero;fill:rgb(0%,0%,0%);fill-opacity:0.235294;" d="M 13.890625 26.175781 C 12.242188 26.175781 10.914062 24.847656 10.914062 23.199219 C 10.914062 23.113281 10.917969 23.03125 10.925781 22.949219 C 11.050781 24.480469 12.328125 25.679688 13.890625 25.679688 C 15.457031 25.679688 16.734375 24.480469 16.859375 22.949219 C 16.863281 23.03125 16.867188 23.113281 16.867188 23.199219 C 16.867188 24.847656 15.542969 26.175781 13.890625 26.175781 Z M 13.890625 26.175781 "/>
<path style="fill:none;stroke-width:3;stroke-linecap:round;stroke-linejoin:miter;stroke:rgb(12.941177%,12.941177%,12.941177%);stroke-opacity:1;stroke-miterlimit:4;" d="M 253.985847 0.646073 C 271.525839 0.646073 285.732815 14.894713 285.732815 32.434704 C 285.732815 49.933033 271.525839 64.181673 253.985847 64.181673 C 236.445855 64.181673 222.238879 49.933033 222.238879 32.434704 C 222.238879 14.894713 236.445855 0.646073 253.985847 0.646073 Z M 253.985847 0.646073 " transform="matrix(0.093759,0,0,0.093759,-9.922822,20.158175)"/>
</g>
</svg>
